X:5630
T:Shottis fr Idre
A:Dalarna
M:4/4
O:Sweden
R:Schottis
Z:Richard Robinson 
%%TUNEURL: http://www.leeds.ac.uk/music/Info/RRTuneBk/gettune/000007b0.html
%%ID:000007b0
K:D
D2FA d2d2|D2FA d>edc|e>fec A2Bc\
|1 d2cB AGFE :|2 d>edc d4 ::
a2a2 g2eg|f2d2 e4|=f2 ag f2ed\
|1 c>ded c2A2 :|2 c>dec d4:|
